X:33
T:The Bush On The Hill
R:jig
M:6/8
L:1/8
K:Gmaj
|:~G,3 B,DG|GDG Bdg|edc BcA|BGE EDE|
~G,3 B,DG|GDG Bdg|edc BcA|BGF G2z:|
|:GBd gfg|ege dBG|cec BdB|AGA BGE|
GBd gfg|ege dBG|cec BdB|AGF G2z:||

